X: 21191
Q: "Vivace"
M: 6/8
L: 1/16
K: G
g2 |\
d4G2 {c2}B3AG2 | A3BA2 c4e2 | d4G2 B3AB2 | G2g2d2 B3cd2 |\
{d}cBcdef g2d2B2 | A3BA2 c4e2 | {e}d4c2 B2c2A2 | G2g2d2 B4 :|
|: d2 |\
{d}cBcdef g2d2B2 | A2a2A2 c3def | g2agfe d2BcdB | G2g2d2 B4 :|


